icons/default/Insight.svg

<path
	d="M5.53556 1.95488L4.39156 3.09725L6.09375 4.79863L7.23613 3.65625L5.53475 1.95488H5.53556ZM20.4652 1.95488L18.7631 3.65625L19.9062 4.79863L21.6076 3.09807L20.4644 1.95488H20.4652ZM13 2.46188C12.7319 2.46513 12.4605 2.48057 12.1875 2.51388C12.1794 2.51388 12.1713 2.51225 12.1631 2.51388C8.86763 2.89169 6.24487 5.55425 5.78906 8.83513C5.42506 11.4758 6.51381 13.8702 8.32812 15.4123C9.07027 16.0457 9.57225 16.9148 9.75 17.8742V22.7492H11.6025C11.8852 23.2343 12.4012 23.5617 13 23.5617C13.5988 23.5617 14.1147 23.2343 14.3975 22.7492H16.25V19.4992H16.3264V18.5339C16.3264 17.3428 16.9455 16.1419 17.9514 15.2084C19.2969 13.8613 20.3125 11.9478 20.3125 9.75C20.3125 5.73625 17.0089 2.4245 13 2.46188V2.46188ZM13 4.08688C16.1403 4.04301 18.6875 6.61375 18.6875 9.75C18.6875 11.4514 17.8994 12.9496 16.8082 14.04L16.8342 14.066C15.7498 15.066 15.0486 16.4132 14.8517 17.875H11.2978C11.1191 16.4824 10.5219 15.1344 9.39331 14.1676C7.95762 12.9488 7.10206 11.1126 7.38806 9.03907C7.74313 6.47969 9.81988 4.42163 12.3646 4.13969C12.5747 4.1104 12.7863 4.09304 12.9984 4.08769L13 4.08688ZM1.625 9.75V11.375H4.0625V9.75H1.625ZM21.9375 9.75V11.375H24.375V9.75H21.9375ZM6.09375 16.3264L4.39238 18.0269L5.53556 19.1701L7.23531 17.4688L6.09375 16.3264ZM19.9062 16.3264L18.7639 17.4688L20.4644 19.1701L21.6076 18.0269L19.9062 16.3264ZM11.375 19.5H14.625V21.125H11.375V19.5Z"
	fill="black" />
<path
	d="M16.9504 7.44074C16.9151 7.30797 16.8114 7.20434 16.6787 7.16895C16.6086 7.15031 14.9495 6.7255 13.7513 7.92377C13.048 8.62697 12.9004 9.49274 12.9019 10.1016C12.8382 10.0247 12.77 9.94885 12.6959 9.87468C11.3207 8.49945 9.41538 8.98731 9.33492 9.00867C9.20219 9.04407 9.09852 9.1477 9.06316 9.28047C9.04173 9.36093 8.5539 11.2663 9.92909 12.6415C10.732 13.4444 11.7202 13.6162 12.4189 13.6162C12.6032 13.6162 12.7672 13.6042 12.9025 13.5887V13.9573C12.9025 14.169 13.0742 14.3408 13.286 14.3408C13.4978 14.3408 13.6695 14.1691 13.6695 13.9573V12.4634C13.6709 12.4005 13.6711 12.3348 13.6695 12.2668V11.2003C13.7738 11.2104 13.8943 11.2175 14.0268 11.2175C14.6352 11.2175 15.496 11.0679 16.1957 10.3682C17.3939 9.16994 16.969 7.51077 16.9504 7.44074ZM12.0184 11.4217C11.8687 11.2721 11.6259 11.2721 11.4761 11.4217C11.3264 11.5715 11.3264 11.8143 11.4761 11.9641L12.3573 12.8452C11.809 12.8339 11.062 12.6899 10.4714 12.0993C9.64594 11.2738 9.69258 10.1785 9.76065 9.70754C10.2312 9.64143 11.3328 9.59621 12.1536 10.417C12.7444 11.0078 12.8884 11.7549 12.8997 12.303L12.0184 11.4217ZM15.6533 9.82585C15.2102 10.269 14.6602 10.4104 14.2206 10.4411L14.8728 9.78888C15.0225 9.63916 15.0225 9.39632 14.8728 9.24656C14.7231 9.09688 14.4802 9.09688 14.3305 9.24656L13.6782 9.8988C13.7089 9.45918 13.8503 8.90919 14.2935 8.46605C14.9589 7.80066 15.8375 7.81539 16.25 7.86843C16.3017 8.28062 16.3159 9.16334 15.6533 9.82585Z"
	fill="black" />

<path d="M5.536 1.955 4.392 3.097 6.094 4.8l1.142-1.143-1.701-1.701Zm14.93 0-1.703 1.701L19.906 4.8l1.702-1.7-1.144-1.144h.001ZM13 2.462c-.268.003-.54.019-.813.052-.008 0-.016-.002-.024 0-3.295.378-5.918 3.04-6.374 6.321-.364 2.64.725 5.035 2.54 6.577a4.256 4.256 0 0 1 1.421 2.462v4.875h1.852c.283.485.8.813 1.398.813.599 0 1.115-.328 1.398-.813h1.852V19.5h.076v-.965c0-1.191.62-2.392 1.625-3.326 1.346-1.347 2.361-3.26 2.361-5.458 0-4.014-3.303-7.325-7.312-7.288Zm0 1.625c3.14-.044 5.688 2.527 5.688 5.663 0 1.701-.789 3.2-1.88 4.29l.026.026a6.331 6.331 0 0 0-1.982 3.809h-3.554c-.179-1.393-.776-2.74-1.905-3.707-1.435-1.22-2.29-3.055-2.005-5.129.355-2.56 2.432-4.617 4.977-4.9.21-.029.421-.046.633-.051L13 4.087ZM1.625 9.75v1.625h2.438V9.75H1.624Zm20.313 0v1.625h2.437V9.75h-2.438ZM6.094 16.326l-1.702 1.7 1.144 1.144 1.7-1.701-1.142-1.143Zm13.812 0-1.142 1.143 1.7 1.701 1.144-1.143-1.702-1.7ZM11.375 19.5h3.25v1.625h-3.25V19.5Z"/><path d="M16.95 7.44a.383.383 0 0 0-.271-.271c-.07-.019-1.73-.443-2.928.755-.703.703-.85 1.569-.85 2.178a3.285 3.285 0 0 0-.205-.227c-1.375-1.376-3.28-.888-3.361-.866a.383.383 0 0 0-.272.271c-.021.08-.51 1.986.866 3.362.803.802 1.791.974 2.49.974.184 0 .348-.012.483-.027v.368a.384.384 0 0 0 .768 0v-1.494a4.294 4.294 0 0 0 0-.196V11.2c.104.01.224.018.357.018.608 0 1.469-.15 2.169-.85 1.198-1.198.773-2.857.754-2.927Zm-4.932 3.982a.384.384 0 0 0-.542.542l.881.881c-.548-.011-1.295-.155-1.886-.746-.825-.825-.778-1.92-.71-2.391.47-.067 1.572-.112 2.393.709.59.59.734 1.338.746 1.886l-.882-.881Zm3.635-1.596c-.443.443-.993.584-1.432.615l.652-.652a.384.384 0 0 0-.542-.542l-.653.652c.03-.44.172-.99.615-1.433.666-.665 1.545-.65 1.957-.598.052.413.066 1.295-.597 1.958Z"/>
